X:99
T:Jig of Slurs, The
R:jig
Z:Transcribed by Dave Marshall
M:6/8
K:D
|: A2d dcd | Bdd Add | Bdd Add | Bee edB | 
A2d dcd | Bdd Add | Bdd cde | fdc dcB :|
|: A2f fef | a2f fed | B2e ede | ~f3 edB | 
A2f fef | a2f fed | Bdd cde |1 fdc dcB :|2 fdc d3 |
K:G 
|: G2g gfg | agf gdB | G2g gfg | agf g2b | 
G2g gfg | agf g2f | e3 efg | fed edB :|
|: GBB Bdd | dee edB | GBB Bdd | dee efg | 
GBB Bdd | dee edB | e3 efg | fed edB :|
